ICONS/component-icons/svg/globalization.svg

<?xml version="1.0" encoding="UTF-8"?><svg id="widgets" xmlns="http://www.w3.org/2000/svg" width="24" height="24" viewBox="0 0 24 24"><path id="globalization" d="M12,0C5.37,0,0,5.37,0,12s5.37,12,12,12,12-5.37,12-12S18.63,0,12,0Zm1,8.92c1.29-.06,2.52-.24,3.66-.53,.16,.82,.27,1.7,.32,2.61h-3.97v-2.08Zm0-2V2.2c1.32,.54,2.45,2.11,3.17,4.29-.98,.23-2.05,.38-3.17,.43Zm-2-4.72V6.92c-1.12-.06-2.19-.21-3.17-.44,.72-2.17,1.85-3.75,3.17-4.28Zm0,6.72v2.08h-3.97c.05-.91,.16-1.78,.32-2.61,1.14,.28,2.37,.46,3.66,.53Zm-5.97,2.08H2.05c.15-1.51,.65-2.92,1.39-4.16,.61,.36,1.28,.68,2,.96-.22,1.01-.37,2.08-.42,3.2Zm0,2c.05,1.12,.2,2.19,.42,3.2-.73,.28-1.4,.6-2,.96-.75-1.24-1.24-2.64-1.39-4.16h2.98Zm2,0h3.97v2.08c-1.29,.06-2.52,.24-3.66,.53-.16-.82-.27-1.7-.32-2.61Zm3.97,4.08v4.72c-1.32-.54-2.45-2.11-3.17-4.29,.98-.23,2.05-.38,3.17-.43Zm2,4.72v-4.72c1.12,.06,2.19,.21,3.17,.43-.72,2.17-1.85,3.75-3.17,4.29Zm0-6.72v-2.08h3.97c-.05,.91-.16,1.78-.32,2.61-1.14-.28-2.37-.46-3.66-.53Zm5.97-2.08h2.98c-.15,1.51-.65,2.92-1.39,4.16-.61-.36-1.28-.68-2-.96,.22-1.01,.37-2.08,.42-3.2Zm0-2c-.05-1.12-.2-2.19-.42-3.2,.73-.28,1.4-.6,2-.96,.75,1.24,1.24,2.65,1.39,4.16h-2.98Zm.44-5.7c-.42,.23-.89,.44-1.38,.62-.35-1.02-.78-1.93-1.28-2.73,1.01,.54,1.9,1.26,2.66,2.1ZM7.25,3.2c-.5,.8-.93,1.71-1.28,2.73-.5-.19-.96-.4-1.38-.63,.76-.84,1.65-1.56,2.66-2.1Zm-2.66,15.5c.42-.23,.88-.44,1.38-.63,.35,1.02,.78,1.93,1.28,2.73-1.01-.54-1.9-1.26-2.66-2.1Zm12.15,2.1c.5-.8,.93-1.71,1.28-2.73,.5,.19,.96,.39,1.38,.62-.76,.84-1.66,1.56-2.66,2.11Z"/></svg>

<?xml version="1.0" encoding="utf-8"?>
<!-- Generator: Adobe Illustrator 24.2.3, SVG Export Plug-In . SVG Version: 6.00 Build 0)  -->
<svg version="1.1" id="Layer_1" xmlns="http://www.w3.org/2000/svg" xmlns:xlink="http://www.w3.org/1999/xlink" x="0px" y="0px"
	 width="24px" height="24px" viewBox="0 0 24 24" enable-background="new 0 0 24 24" xml:space="preserve">
<path d="M12,0C5.4,0,0,5.4,0,12s5.4,12,12,12s12-5.4,12-12S18.6,0,12,0z M7.2,3.2C6.7,4.1,6.3,5,6,5.9C5.5,5.7,5,5.5,4.6,5.3
	C5.4,4.5,6.3,3.7,7.2,3.2z M3.4,6.8c0.6,0.4,1.3,0.7,2,1C5.2,8.9,5.1,9.9,5,11H2C2.2,9.5,2.7,8.1,3.4,6.8z M3.4,17.2
	C2.7,15.9,2.2,14.5,2,13h3c0,1.1,0.2,2.1,0.4,3.2C4.7,16.5,4.1,16.8,3.4,17.2z M4.6,18.7C5,18.5,5.5,18.2,6,18.1
	c0.3,1,0.7,1.9,1.2,2.7C6.3,20.3,5.4,19.5,4.6,18.7z M11,21.8c-1.3-0.5-2.4-2.1-3.2-4.3c1-0.2,2.1-0.4,3.2-0.4V21.8z M11,15.1
	c-1.2,0.1-2.5,0.2-3.7,0.5C7.2,14.7,7,13.9,7,13h4V15.1z M11,11H7c0-0.9,0.1-1.7,0.3-2.6C8.5,8.7,9.8,8.9,11,8.9V11z M11,6.9
	C9.9,6.9,8.9,6.7,7.8,6.5C8.6,4.3,9.7,2.7,11,2.2V6.9z M20.5,6.8c0.8,1.3,1.3,2.7,1.5,4.2h-3c0-1.1-0.2-2.1-0.4-3.2
	C19.3,7.5,19.9,7.2,20.5,6.8z M19.4,5.3C19,5.5,18.5,5.8,18,5.9c-0.3-1-0.7-1.9-1.2-2.7C17.7,3.7,18.6,4.5,19.4,5.3z M13,2.2
	c1.3,0.5,2.4,2.1,3.2,4.3c-1,0.2-2.1,0.4-3.2,0.4V2.2z M13,8.9c1.2-0.1,2.5-0.2,3.7-0.5C16.8,9.3,17,10.1,17,11h-4V8.9z M13,21.8
	v-4.7c1.1,0.1,2.1,0.2,3.2,0.4C15.4,19.7,14.3,21.3,13,21.8z M13,15.1V13h4c0,0.9-0.1,1.7-0.3,2.6C15.5,15.3,14.2,15.1,13,15.1z
	 M16.8,20.8c0.5-0.9,0.9-1.8,1.2-2.7c0.5,0.2,0.9,0.4,1.4,0.6C18.6,19.5,17.7,20.3,16.8,20.8z M20.5,17.2c-0.6-0.4-1.3-0.7-2-1
	c0.2-1,0.4-2.1,0.5-3.2h3C21.8,14.5,21.3,15.9,20.5,17.2z"/>
</svg>
